X: 383
T: the Bucks of Westmeath   #2
B: Francis O'Neill: "The Dance Music of Ireland" (1907) #383
R: single jig
%S: s:6 b:20(6+4+4+6)
Z: Frank Nordberg - http://www.musicaviva.com
F: http://www.musicaviva.com/abc/tunes/ireland/oneill-1001/0383/oneill-1001-0383-1.abc
M: 6/8
L: 1/8
K: G
"^A"\
|: e | d3  BdB | G2A B2 [1,3 c | d3  BdB | cAB c2 :|\
                        [2,4 d | gfe dcB | A2B c2 :|
"^B"\
|: d | gfg dcB | ege dcB | gfg dcB | A2B c2 ||
|  f | gfg abc'| bag gfe | gfe dcB | A2B c2 :|
"^C"\
|: e | dBG G2e | dBG G2 [1,3 e | dBG G2B | A2B c2 :|\
                        [2,4 d | gfe dcB | A2B c2 :|
